!!!OTL: 524. Prinz Eugen vor Belgrad. 1717.
!!!ARE: Europa, Mitteleuropa, Deutschland
!!!SCT: E0324A
!!!TXL: @@DE
!!!YEM: Copyright 1995, estate of Helmut Schaffrath.
**kern	**text
*ICvox	*
!! Mixed meters:  3/4; 2/4
*M3/4	*
*k[f#]	*
*G:	*
!LO:TX:a:t=Nachdrücklich nnd mäßig bewegt.	!
!LO:TX:a:t=Taktirung von Fr. Silcher, um 1860.	!
{8d	Prinʒ
8d	Eu-
=1	=1
8.g	-ge-
16g	-ni-
8g	-us
8g	der
8g	ed-
8a	-le
=2	=2
4b	Rit-
4b^}	-ter,
{8g	wollt
8a	dem
=3	=3
*M2/4	*
4b	Kai-
4dd	-ſer
=4	=4
8dd	wiedrum
8cc	.
8cc	krie-
8b}	-gen
=5	=5
*M3/4	*
{8a	Stadt
8g	und
8a	Fe-
8b	-ſtung
8cc	Bel-
8b	-ge-
=6	=6
2a}	-rad.
{8d	Prinʒ
8d	Eu-
=7	=7
8.g	-ge-
16g	-ni-
8g	-us
8g	der
8g	ed-
8a	-le
=8	=8
4b	Rit-
4b^}	-ter,
{8g	wollt
8a	dem
=9	=9
*M2/4	*
4b	Kai-
4dd	-ſer
=10	=10
8dd	wiedrum
8cc	.
8cc	krie-
8b}	-gen
=11	=11
*M3/4	*
{8a	Stadt
8g	und
8a	Fe-
8b	-ſtung
8cc	Bel-
8b	-ge-
=12	=12
2a}	-rad.
{8dd	Er
8cc	ließ
=13	=13
*M2/4	*
4b	ſchla-
4dd	-gen
=14	=14
*M3/4	*
8ee	ei-
8dd	-nen
8cc	Bru-
8b}	-cken,
{8a	daß
8g	man
=15	=15
*M2/4	*
4a	konnt
4cc	hin-
=16	=16
*M3/4	*
8dd	-ü-
8cc	-ber-
8b	-ru-
8a}	-cken
{8g	mit
8g	d'r_Ar-
=17	=17
4g	-mee
4b/	wohl
8a	vor
8a	die
=18	=18
2g}	Stadt.
{8dd	Er
8cc	ließ
=19	=19
*M2/4	*
4b	ſchla-
4dd	-gen
=20	=20
*M3/4	*
8ee	ei-
8dd	-nen
8cc	Bru-
8b}	-cken,
{8a	daß
8g	man
=21	=21
*M2/4	*
4a	konnt
4cc	hin-
=22	=22
*M3/4	*
8dd	-ü-
8cc	-ber-
8b	-ru-
8a}	-cken
{8g	mit
8g	d'r_Ar-
=23	=23
4g	-mee
4b/	wohl
8a	vor
8a	die
=24	=24
2g}	Stadt.
==	==
!!!AGN: historisches Lied, Prinz Eugen (1717)
!!!ONB: ESAC (Essen Associative Code) Database: ERK1
!!!AMT: irregular
!!!AIN: vox
!!!EED: Helmut Schaffrath
!!!EEV: 1.0
!!!GTL: Historische Lieder
!!!URL-scan: https://rosdok.uni-rostock.de/mcrviewer/recordIdentifier/rosdok_ppn745177662/iview2/phys_0138.iview2?x=-544.0401362767932&y=186.28693991864566&scale=0.4722427387526479&rotation=0&layout=singlePageLayout
!!!ENC: Anna Maria Matuszewska
!!!EEV: 2024/06/12
*-	*-
